icons/op-cost-types-24.svg

<svg width="24" height="24" viewBox="0 0 24 24" fill="none" xmlns="http://www.w3.org/2000/svg">
<path d="M12.9677 6.2069V5H4V6.65517H12.9677V6.2069ZM12.9677 7.96552V7.51724H4V9.17241H11.8387C12.2581 8.86207 12.5806 8.51724 12.9677 8.31034V7.96552ZM4 9.96552V11.6207H10.3871C10.6129 11.069 10.9032 10.5172 11.2258 9.96552H4ZM10.1935 12.3793H4V14.0345H10.0968V13.5862C10.0968 13.2759 10.0968 12.8276 10.1935 12.3793ZM4 14.931V16.5862H10.7097C10.5161 16.0345 10.2903 15.4828 10.1935 14.931H4ZM11.2258 17.3448H4V19H12.9677C12.2581 18.5517 11.7419 18 11.2258 17.3448ZM15.5484 8.62069C13.0968 8.62069 11.129 10.8276 11.129 13.5862C11.129 16.3448 13.0968 18.5517 15.5484 18.5517C18.0323 18.5517 20 16.3448 20 13.5862C20 10.8276 18.0323 8.62069 15.5484 8.62069ZM15.7742 16.4483V17.3448H15.2581V16.4483C14.7419 16.4483 14.2258 16.2414 13.9032 16.0345L14.129 15.4828C14.4194 15.6897 14.8387 15.8966 15.3548 15.8966C15.9677 15.8966 16.3871 15.5862 16.3871 15.0345C16.3871 14.4828 16.0645 14.2414 15.4516 13.931C14.6452 13.5862 14 13.1379 14 12.3793C14 11.6207 14.5161 11.069 15.2581 10.931V9.96552H15.7742V10.8276C16.2903 10.8276 16.5806 10.931 16.9032 11.1724L16.7097 11.7241C16.4839 11.6207 16.1935 11.3793 15.6774 11.3793C15.0323 11.3793 14.7419 11.8276 14.7419 12.1724C14.7419 12.5862 15.0323 12.8276 15.7742 13.1379C16.5806 13.4828 17.0968 14.0345 17.0968 14.7931C17.0968 15.5862 16.5806 16.2414 15.7742 16.4483Z" fill="black"/>
</svg>

<svg xmlns="http://www.w3.org/2000/svg" width="24" height="24" viewBox="0 0 24 24"><path d="M12.968 6.207V5H4v1.655h8.968v-.448Zm0 1.759v-.449H4v1.655h7.839c.419-.31.742-.655 1.129-.862v-.344ZM4 9.966v1.655h6.387c.226-.552.516-1.104.839-1.655H4Zm6.194 2.413H4v1.655h6.097v-.448c0-.31 0-.758.097-1.207ZM4 14.931v1.655h6.71c-.194-.551-.42-1.103-.516-1.655H4Zm7.226 2.414H4V19h8.968c-.71-.448-1.226-1-1.742-1.655Zm4.322-8.724c-2.451 0-4.419 2.207-4.419 4.965 0 2.759 1.968 4.966 4.419 4.966 2.484 0 4.452-2.207 4.452-4.966 0-2.758-1.968-4.965-4.452-4.965Zm.226 7.827v.897h-.516v-.897c-.516 0-1.032-.207-1.355-.413l.226-.552c.29.207.71.414 1.226.414.613 0 1.032-.311 1.032-.863 0-.551-.323-.793-.935-1.103-.807-.345-1.452-.793-1.452-1.552 0-.758.516-1.31 1.258-1.448v-.965h.516v.862c.516 0 .807.103 1.129.344l-.193.552c-.226-.103-.516-.345-1.033-.345-.645 0-.935.449-.935.793 0 .414.29.656 1.032.966.807.345 1.323.896 1.323 1.655 0 .793-.516 1.448-1.323 1.655Z"/></svg>
